X:5120
T:Iniskea
M:9/8
R:Slip Jig
L:1/8
Q:180
C:Aidan Crossey
K:Dmix
|:DGG BAG BB/B/B|DGG BAG AFD|DGG BAG Bcd|ecA ABG FED:||
|:Bdd deB dd/d/d|Bdd dBG AFD|Bdd deB dd/d/e|gfe dBG AFD:||
